X: 4
T: Gan Ainm
M: 9/8
L: 1/8
R: slip jig
K: Gmaj
|: G2 B BG/A/B dBG | e2 c AB/A/G FED | 
GBB BGB dBd |[1 ece fd/e/f gdB :|[2 ece fdf g2 a ||
|: b2 g agf g2 d | g2 g ee/f/g fdB | 
e2 c fdf g2 e |[1 dgf e2 ^d ef/g/a :|[2 dgf ee/d/c BcA |]
